source/docs/software/commandbased/diagrams/scheduler-run-sequence.drawio.svg

<svg xmlns="http://www.w3.org/2000/svg" xmlns:xlink="http://www.w3.org/1999/xlink" width="231" height="441" viewBox="-0.5 -0.5 231 441" style="background-color:#fff"><defs><style>@import url(https://fonts.googleapis.com/css?family=Lato);</style></defs><path fill="#fff" stroke="#000" pointer-events="all" d="M0 120h230v320H0z"/><path d="M130 50v20-20 13.63" fill="none" stroke="#000" stroke-miterlimit="10" pointer-events="stroke"/><path d="M130 68.88l-3.5-7 3.5 1.75 3.5-1.75z" stroke="#000" stroke-miterlimit="10" pointer-events="all"/><ellipse cx="130" cy="25" rx="60" ry="25" fill="#fff" stroke="#000" pointer-events="all"/><switch transform="translate(-.5 -.5)"><foreignObject style="text-align:left" pointer-events="none" width="100%" height="100%" requiredFeatures="http://www.w3.org/TR/SVG11/feature#Extensibility" overflow="visible"><div xmlns="http://www.w3.org/1999/xhtml" style="align-items:unsafe center;justify-content:unsafe center;width:118px;height:1px;padding-top:25px;margin-left:71px" display="flex"><div style="box-sizing:border-box;text-align:center" font-size="0"><div style="line-height:1.2;white-space:normal;word-wrap:normal" display="inline-block" font-size="12" font-family="Lato" color="#000" pointer-events="all">Subsystem<br/>periodic()</div></div></div></foreignObject><text x="130" y="29" font-family="Lato" font-size="12" text-anchor="middle">Subsystem...</text></switch><path d="M130 110v20-10 13.63" fill="none" stroke="#000" stroke-miterlimit="10" pointer-events="stroke"/><path d="M130 138.88l-3.5-7 3.5 1.75 3.5-1.75z" stroke="#000" stroke-miterlimit="10" pointer-events="all"/><path fill="#fff" stroke="#000" pointer-events="all" d="M70 70h120v40H70z"/><switch transform="translate(-.5 -.5)"><foreignObject style="text-align:left" pointer-events="none" width="100%" height="100%" requiredFeatures="http://www.w3.org/TR/SVG11/feature#Extensibility" overflow="visible"><div xmlns="http://www.w3.org/1999/xhtml" style="align-items:unsafe center;justify-content:unsafe center;width:118px;height:1px;padding-top:90px;margin-left:71px" display="flex"><div style="box-sizing:border-box;text-align:center" font-size="0"><div style="line-height:1.2;white-space:normal;word-wrap:normal" display="inline-block" font-size="12" font-family="Lato" color="#000" pointer-events="all">Schedule commands from triggers</div></div></div></foreignObject><text x="130" y="94" font-family="Lato" font-size="12" text-anchor="middle">Schedule commands fr...</text></switch><path d="M130 180v20-20 13.63" fill="none" stroke="#000" stroke-miterlimit="10" pointer-events="stroke"/><path d="M130 198.88l-3.5-7 3.5 1.75 3.5-1.75z" stroke="#000" stroke-miterlimit="10" pointer-events="all"/><path fill="#fff" stroke="#000" pointer-events="all" d="M70 140h120v40H70z"/><switch transform="translate(-.5 -.5)"><foreignObject style="text-align:left" pointer-events="none" width="100%" height="100%" requiredFeatures="http://www.w3.org/TR/SVG11/feature#Extensibility" overflow="visible"><div xmlns="http://www.w3.org/1999/xhtml" style="align-items:unsafe center;justify-content:unsafe center;width:118px;height:1px;padding-top:160px;margin-left:71px" display="flex"><div style="box-sizing:border-box;text-align:center" font-size="0"><div style="line-height:1.2;white-space:normal;word-wrap:normal" display="inline-block" font-size="12" font-family="Lato" color="#000" pointer-events="all">Initialize()</div></div></div></foreignObject><text x="130" y="164" font-family="Lato" font-size="12" text-anchor="middle">Initialize()</text></switch><path d="M130 240v20-20 13.63" fill="none" stroke="#000" stroke-miterlimit="10" pointer-events="stroke"/><path d="M130 258.88l-3.5-7 3.5 1.75 3.5-1.75z" stroke="#000" stroke-miterlimit="10" pointer-events="all"/><path fill="#fff" stroke="#000" pointer-events="all" d="M70 200h120v40H70z"/><switch transform="translate(-.5 -.5)"><foreignObject style="text-align:left" pointer-events="none" width="100%" height="100%" requiredFeatures="http://www.w3.org/TR/SVG11/feature#Extensibility" overflow="visible"><div xmlns="http://www.w3.org/1999/xhtml" style="align-items:unsafe center;justify-content:unsafe center;width:118px;height:1px;padding-top:220px;margin-left:71px" display="flex"><div style="box-sizing:border-box;text-align:center" font-size="0"><div style="line-height:1.2;white-space:normal;word-wrap:normal" display="inline-block" font-size="12" font-family="Lato" color="#000" pointer-events="all">Execute()</div></div></div></foreignObject><text x="130" y="224" font-family="Lato" font-size="12" text-anchor="middle">Execute()</text></switch><path d="M130 310v20-10 13.63" fill="none" stroke="#000" stroke-miterlimit="10" pointer-events="stroke"/><path d="M130 338.88l-3.5-7 3.5 1.75 3.5-1.75z" stroke="#000" stroke-miterlimit="10" pointer-events="all"/><switch transform="translate(-.5 -.5)"><foreignObject style="text-align:left" pointer-events="none" width="100%" height="100%" requiredFeatures="http://www.w3.org/TR/SVG11/feature#Extensibility" overflow="visible"><div xmlns="http://www.w3.org/1999/xhtml" style="align-items:unsafe center;justify-content:unsafe center;width:1px;height:1px;padding-top:324px;margin-left:115px" display="flex"><div style="box-sizing:border-box;text-align:center" font-size="0"><div style="line-height:1.2;background-color:#fff;white-space:nowrap" display="inline-block" font-size="11" font-family="Lato" color="#000" pointer-events="all">True</div></div></div></foreignObject><text x="115" y="327" font-family="Lato" font-size="11" text-anchor="middle">True</text></switch><path d="M70 285H40v125h23.63" fill="none" stroke="#000" stroke-miterlimit="10" pointer-events="stroke"/><path d="M68.88 410l-7 3.5 1.75-3.5-1.75-3.5z" stroke="#000" stroke-miterlimit="10" pointer-events="all"/><switch transform="translate(-.5 -.5)"><foreignObject style="text-align:left" pointer-events="none" width="100%" height="100%" requiredFeatures="http://www.w3.org/TR/SVG11/feature#Extensibility" overflow="visible"><div xmlns="http://www.w3.org/1999/xhtml" style="align-items:unsafe center;justify-content:unsafe center;width:1px;height:1px;padding-top:278px;margin-left:55px" display="flex"><div style="box-sizing:border-box;text-align:center" font-size="0"><div style="line-height:1.2;background-color:#fff;white-space:nowrap" display="inline-block" font-size="11" font-family="Lato" color="#000" pointer-events="all">False</div></div></div></foreignObject><text x="55" y="281" font-family="Lato" font-size="11" text-anchor="middle">False</text></switch><path d="M130 260l60 25-60 25-60-25z" fill="#fff" stroke="#000" stroke-miterlimit="10" pointer-events="all"/><switch transform="translate(-.5 -.5)"><foreignObject style="text-align:left" pointer-events="none" width="100%" height="100%" requiredFeatures="http://www.w3.org/TR/SVG11/feature#Extensibility" overflow="visible"><div xmlns="http://www.w3.org/1999/xhtml" style="align-items:unsafe center;justify-content:unsafe center;width:118px;height:1px;padding-top:285px;margin-left:71px" display="flex"><div style="box-sizing:border-box;text-align:center" font-size="0"><div style="line-height:1.2;white-space:normal;word-wrap:normal" display="inline-block" font-size="12" font-family="Lato" color="#000" pointer-events="all">IsFinished()</div></div></div></foreignObject><text x="130" y="289" font-family="Lato" font-size="12" text-anchor="middle">IsFinished()</text></switch><path d="M130 370v20-20 13.63" fill="none" stroke="#000" stroke-miterlimit="10" pointer-events="stroke"/><path d="M130 388.88l-3.5-7 3.5 1.75 3.5-1.75z" stroke="#000" stroke-miterlimit="10" pointer-events="all"/><path fill="#fff" stroke="#000" pointer-events="all" d="M70 340h120v30H70z"/><switch transform="translate(-.5 -.5)"><foreignObject style="text-align:left" pointer-events="none" width="100%" height="100%" requiredFeatures="http://www.w3.org/TR/SVG11/feature#Extensibility" overflow="visible"><div xmlns="http://www.w3.org/1999/xhtml" style="align-items:unsafe center;justify-content:unsafe center;width:118px;height:1px;padding-top:355px;margin-left:71px" display="flex"><div style="box-sizing:border-box;text-align:center" font-size="0"><div style="line-height:1.2;white-space:normal;word-wrap:normal" display="inline-block" font-size="12" font-family="Lato" color="#000" pointer-events="all">End()</div></div></div></foreignObject><text x="130" y="359" font-family="Lato" font-size="12" text-anchor="middle">End()</text></switch><ellipse cx="130" cy="410" rx="60" ry="20" fill="#fff" stroke="#000" pointer-events="all"/><switch transform="translate(-.5 -.5)"><foreignObject style="text-align:left" pointer-events="none" width="100%" height="100%" requiredFeatures="http://www.w3.org/TR/SVG11/feature#Extensibility" overflow="visible"><div xmlns="http://www.w3.org/1999/xhtml" style="align-items:unsafe center;justify-content:unsafe center;width:118px;height:1px;padding-top:410px;margin-left:71px" display="flex"><div style="box-sizing:border-box;text-align:center" font-size="0"><div style="line-height:1.2;white-space:normal;word-wrap:normal" display="inline-block" font-size="12" font-family="Lato" color="#000" pointer-events="all">Move to next command</div></div></div></foreignObject><text x="130" y="414" font-family="Lato" font-size="12" text-anchor="middle">Move to next command</text></switch><path fill="none" pointer-events="all" d="M4 127h60v20H4z"/><switch transform="translate(-.5 -.5)"><foreignObject style="text-align:left" pointer-events="none" width="100%" height="100%" requiredFeatures="http://www.w3.org/TR/SVG11/feature#Extensibility" overflow="visible"><div xmlns="http://www.w3.org/1999/xhtml" style="align-items:unsafe center;justify-content:unsafe flex-start;width:58px;height:1px;padding-top:137px;margin-left:6px" display="flex"><div style="box-sizing:border-box;text-align:left" font-size="0"><div style="line-height:1.2;white-space:normal;word-wrap:normal" display="inline-block" font-size="12" font-family="Lato" color="#000" pointer-events="all">For each command</div></div></div></foreignObject><text x="6" y="141" font-family="Lato" font-size="12">For each c...</text></switch><switch><a transform="translate(0 -5)" xlink:href="https://desk.draw.io/support/solutions/articles/16000042487" target="_blank"><text text-anchor="middle" font-size="10" x="50%" y="100%">Viewer does not support full SVG 1.1</text></a></switch></svg>

<?xml version="1.0" encoding="UTF-8"?>
<!DOCTYPE svg PUBLIC "-//W3C//DTD SVG 1.1//EN" "http://www.w3.org/Graphics/SVG/1.1/DTD/svg11.dtd">
<svg xmlns="http://www.w3.org/2000/svg" xmlns:xlink="http://www.w3.org/1999/xlink" version="1.1" width="231px" height="441px" viewBox="-0.5 -0.5 231 441" content="&lt;mxfile host=&quot;Electron&quot; modified=&quot;2020-04-26T21:13:33.667Z&quot; agent=&quot;5.0 (Macintosh; Intel Mac OS X 10_14_6) AppleWebKit/537.36 (KHTML, like Gecko) draw.io/13.0.1 Chrome/80.0.3987.163 Electron/8.2.1 Safari/537.36&quot; etag=&quot;uBZirzE-V3IJLdHjtjZM&quot; version=&quot;13.0.1&quot; type=&quot;device&quot;&gt;&lt;diagram id=&quot;bluZhnY-NQV5kzVjfMsJ&quot; name=&quot;Page-1&quot;&gt;3Vlbb9sgFP41lraHRr7Elz42bbJNaqdJ3dTtkdjEZsPGApxLf/0gxnEIaeZtyexOiiI4HGP4vo9zAFvebb5+R0GZPZAEYsu1k7Xl3VmuG7q++JeGTW0IIrs2pBQltclpDY/oGSpj41ahBDLNkROCOSp1Y0yKAsZcswFKyUp3WxCsv7UEKTQMjzHApvUJJTyrrZFvt/b3EKVZ82bHVi05aJyVgWUgISvNBNd8RgquhngPOLH8aca5nNuN5c7EbyHbRykhKYagRGwUk1yYYyZcZguQIyyB3T4quvSmlndLCeF1KV/fQizpaKCu3zt7oXU3VwoL3ukB5+MDK57tCPqULZdfo+zpy1XD3BLgSoGoAOCbBlVKqiKBshfb8iarDHH4WIJYtq6EjIQt4zkWNUcUJQQzbabexBypGvwSUg7XeyY18neQ5JDTjXBpWj01UKVMr2Fl1fLsNj7ZHsc7R6CIS3d9t1iJgoLrN6DzDKBgItSoqoTyjKSkAHjaWic6lK3PPSGlAvA75Hyjlhaotvj9KbyMVDSGp9hXaxTQFPITfkoTcn4nyaIQA46W+mo8O/CNeFrJPlZztmEcisUWgFwqspizcgtNgMXEJnMqSqkslZAikqD4zVuTPoxFoIK9ady1dY3v6nsad9wjGvcvJXH/18Hh1Wne7aj58aA075qajzOYVAJhmU7zHBQJkymTyoxjc4rSFFI2yFhu6DzsqPPxpXQe/oc6H3fUeTAonY8NJj4UiCOABWhHQvYQ5eyN+5bzdR/qFQDSzVf5/Mhvqt9Ud9vK3VqrbVTtvKoPOqo+GpTqA0P10zWMK/5aJD/uulO5mOSd/2A3HnXUrjOw7bgZsz9TUTrGxz2YQ6xjKEJ7WohyLPCCVBikDJE409+ohhwlSU0XZOgZzLf9ScJKgtRx3J9Y/l13Pk4JyFgEu9sK9WZLnbNfXBz2aBw0G4jODKjePskptV1dOYG2zq68URDqnZDFggm1HJK4G9Zf8Br1m0a0JNLmlH+SRjovxbPvnraP3lAKNnsOSukv6sQJD+Jx5O8r4pf+gWMfKKgewXn1dG3EiRnA7NUFiuhcgeLKHkV2GGpMnCduuKNrTw8czkHivVzYiAyWP7AZKhATx9Vj25mM5POKDWcrE/R96eKE/cbdPrfvzdamh8D7d5yZ9zPT4qjcB7h797seWL2LSd48AD2Qpbzakl9K7AKueXvNZa6Ogd3b+td9n4aal+2nWkLlcgFxdgJJLoHWIGOckh/wlmDxuHdXkELCvEAYH5ia5Izhgp9KzccY0tfExT4gjTWSPDc0SAqOcPQHn49Etf2qV6fV9murN/0J&lt;/diagram&gt;&lt;/mxfile&gt;" style="background-color: rgb(255, 255, 255);"><defs><style type="text/css">@import url(https://fonts.googleapis.com/css?family=Lato);&#xa;</style></defs><g><rect x="0" y="120" width="230" height="320" fill="#ffffff" stroke="#000000" pointer-events="all"/><path d="M 130 50 L 130 70 L 130 50 L 130 63.63" fill="none" stroke="#000000" stroke-miterlimit="10" pointer-events="stroke"/><path d="M 130 68.88 L 126.5 61.88 L 130 63.63 L 133.5 61.88 Z" fill="#000000" stroke="#000000" stroke-miterlimit="10" pointer-events="all"/><ellipse cx="130" cy="25" rx="60" ry="25" fill="#ffffff" stroke="#000000" pointer-events="all"/><g transform="translate(-0.5 -0.5)"><switch><foreignObject style="overflow: visible; text-align: left;" pointer-events="none" width="100%" height="100%" requiredFeatures="http://www.w3.org/TR/SVG11/feature#Extensibility"><div xmlns="http://www.w3.org/1999/xhtml" style="display: flex; align-items: unsafe center; justify-content: unsafe center; width: 118px; height: 1px; padding-top: 25px; margin-left: 71px;"><div style="box-sizing: border-box; font-size: 0; text-align: center; "><div style="display: inline-block; font-size: 12px; font-family: Lato; color: #000000; line-height: 1.2; pointer-events: all; white-space: normal; word-wrap: normal; ">Subsystem <br />periodic()</div></div></div></foreignObject><text x="130" y="29" fill="#000000" font-family="Lato" font-size="12px" text-anchor="middle">Subsystem...</text></switch></g><path d="M 130 110 L 130 130 L 130 120 L 130 133.63" fill="none" stroke="#000000" stroke-miterlimit="10" pointer-events="stroke"/><path d="M 130 138.88 L 126.5 131.88 L 130 133.63 L 133.5 131.88 Z" fill="#000000" stroke="#000000" stroke-miterlimit="10" pointer-events="all"/><rect x="70" y="70" width="120" height="40" fill="#ffffff" stroke="#000000" pointer-events="all"/><g transform="translate(-0.5 -0.5)"><switch><foreignObject style="overflow: visible; text-align: left;" pointer-events="none" width="100%" height="100%" requiredFeatures="http://www.w3.org/TR/SVG11/feature#Extensibility"><div xmlns="http://www.w3.org/1999/xhtml" style="display: flex; align-items: unsafe center; justify-content: unsafe center; width: 118px; height: 1px; padding-top: 90px; margin-left: 71px;"><div style="box-sizing: border-box; font-size: 0; text-align: center; "><div style="display: inline-block; font-size: 12px; font-family: Lato; color: #000000; line-height: 1.2; pointer-events: all; white-space: normal; word-wrap: normal; ">Schedule commands from triggers</div></div></div></foreignObject><text x="130" y="94" fill="#000000" font-family="Lato" font-size="12px" text-anchor="middle">Schedule commands fr...</text></switch></g><path d="M 130 180 L 130 200 L 130 180 L 130 193.63" fill="none" stroke="#000000" stroke-miterlimit="10" pointer-events="stroke"/><path d="M 130 198.88 L 126.5 191.88 L 130 193.63 L 133.5 191.88 Z" fill="#000000" stroke="#000000" stroke-miterlimit="10" pointer-events="all"/><rect x="70" y="140" width="120" height="40" fill="#ffffff" stroke="#000000" pointer-events="all"/><g transform="translate(-0.5 -0.5)"><switch><foreignObject style="overflow: visible; text-align: left;" pointer-events="none" width="100%" height="100%" requiredFeatures="http://www.w3.org/TR/SVG11/feature#Extensibility"><div xmlns="http://www.w3.org/1999/xhtml" style="display: flex; align-items: unsafe center; justify-content: unsafe center; width: 118px; height: 1px; padding-top: 160px; margin-left: 71px;"><div style="box-sizing: border-box; font-size: 0; text-align: center; "><div style="display: inline-block; font-size: 12px; font-family: Lato; color: #000000; line-height: 1.2; pointer-events: all; white-space: normal; word-wrap: normal; ">Initialize()</div></div></div></foreignObject><text x="130" y="164" fill="#000000" font-family="Lato" font-size="12px" text-anchor="middle">Initialize()</text></switch></g><path d="M 130 240 L 130 260 L 130 240 L 130 253.63" fill="none" stroke="#000000" stroke-miterlimit="10" pointer-events="stroke"/><path d="M 130 258.88 L 126.5 251.88 L 130 253.63 L 133.5 251.88 Z" fill="#000000" stroke="#000000" stroke-miterlimit="10" pointer-events="all"/><rect x="70" y="200" width="120" height="40" fill="#ffffff" stroke="#000000" pointer-events="all"/><g transform="translate(-0.5 -0.5)"><switch><foreignObject style="overflow: visible; text-align: left;" pointer-events="none" width="100%" height="100%" requiredFeatures="http://www.w3.org/TR/SVG11/feature#Extensibility"><div xmlns="http://www.w3.org/1999/xhtml" style="display: flex; align-items: unsafe center; justify-content: unsafe center; width: 118px; height: 1px; padding-top: 220px; margin-left: 71px;"><div style="box-sizing: border-box; font-size: 0; text-align: center; "><div style="display: inline-block; font-size: 12px; font-family: Lato; color: #000000; line-height: 1.2; pointer-events: all; white-space: normal; word-wrap: normal; ">Execute()</div></div></div></foreignObject><text x="130" y="224" fill="#000000" font-family="Lato" font-size="12px" text-anchor="middle">Execute()</text></switch></g><path d="M 130 310 L 130 330 L 130 320 L 130 333.63" fill="none" stroke="#000000" stroke-miterlimit="10" pointer-events="stroke"/><path d="M 130 338.88 L 126.5 331.88 L 130 333.63 L 133.5 331.88 Z" fill="#000000" stroke="#000000" stroke-miterlimit="10" pointer-events="all"/><g transform="translate(-0.5 -0.5)"><switch><foreignObject style="overflow: visible; text-align: left;" pointer-events="none" width="100%" height="100%" requiredFeatures="http://www.w3.org/TR/SVG11/feature#Extensibility"><div xmlns="http://www.w3.org/1999/xhtml" style="display: flex; align-items: unsafe center; justify-content: unsafe center; width: 1px; height: 1px; padding-top: 324px; margin-left: 115px;"><div style="box-sizing: border-box; font-size: 0; text-align: center; "><div style="display: inline-block; font-size: 11px; font-family: Lato; color: #000000; line-height: 1.2; pointer-events: all; background-color: #ffffff; white-space: nowrap; ">True</div></div></div></foreignObject><text x="115" y="327" fill="#000000" font-family="Lato" font-size="11px" text-anchor="middle">True</text></switch></g><path d="M 70 285 L 40 285 L 40 410 L 63.63 410" fill="none" stroke="#000000" stroke-miterlimit="10" pointer-events="stroke"/><path d="M 68.88 410 L 61.88 413.5 L 63.63 410 L 61.88 406.5 Z" fill="#000000" stroke="#000000" stroke-miterlimit="10" pointer-events="all"/><g transform="translate(-0.5 -0.5)"><switch><foreignObject style="overflow: visible; text-align: left;" pointer-events="none" width="100%" height="100%" requiredFeatures="http://www.w3.org/TR/SVG11/feature#Extensibility"><div xmlns="http://www.w3.org/1999/xhtml" style="display: flex; align-items: unsafe center; justify-content: unsafe center; width: 1px; height: 1px; padding-top: 278px; margin-left: 55px;"><div style="box-sizing: border-box; font-size: 0; text-align: center; "><div style="display: inline-block; font-size: 11px; font-family: Lato; color: #000000; line-height: 1.2; pointer-events: all; background-color: #ffffff; white-space: nowrap; ">False</div></div></div></foreignObject><text x="55" y="281" fill="#000000" font-family="Lato" font-size="11px" text-anchor="middle">False</text></switch></g><path d="M 130 260 L 190 285 L 130 310 L 70 285 Z" fill="#ffffff" stroke="#000000" stroke-miterlimit="10" pointer-events="all"/><g transform="translate(-0.5 -0.5)"><switch><foreignObject style="overflow: visible; text-align: left;" pointer-events="none" width="100%" height="100%" requiredFeatures="http://www.w3.org/TR/SVG11/feature#Extensibility"><div xmlns="http://www.w3.org/1999/xhtml" style="display: flex; align-items: unsafe center; justify-content: unsafe center; width: 118px; height: 1px; padding-top: 285px; margin-left: 71px;"><div style="box-sizing: border-box; font-size: 0; text-align: center; "><div style="display: inline-block; font-size: 12px; font-family: Lato; color: #000000; line-height: 1.2; pointer-events: all; white-space: normal; word-wrap: normal; ">IsFinished()</div></div></div></foreignObject><text x="130" y="289" fill="#000000" font-family="Lato" font-size="12px" text-anchor="middle">IsFinished()</text></switch></g><path d="M 130 370 L 130 390 L 130 370 L 130 383.63" fill="none" stroke="#000000" stroke-miterlimit="10" pointer-events="stroke"/><path d="M 130 388.88 L 126.5 381.88 L 130 383.63 L 133.5 381.88 Z" fill="#000000" stroke="#000000" stroke-miterlimit="10" pointer-events="all"/><rect x="70" y="340" width="120" height="30" fill="#ffffff" stroke="#000000" pointer-events="all"/><g transform="translate(-0.5 -0.5)"><switch><foreignObject style="overflow: visible; text-align: left;" pointer-events="none" width="100%" height="100%" requiredFeatures="http://www.w3.org/TR/SVG11/feature#Extensibility"><div xmlns="http://www.w3.org/1999/xhtml" style="display: flex; align-items: unsafe center; justify-content: unsafe center; width: 118px; height: 1px; padding-top: 355px; margin-left: 71px;"><div style="box-sizing: border-box; font-size: 0; text-align: center; "><div style="display: inline-block; font-size: 12px; font-family: Lato; color: #000000; line-height: 1.2; pointer-events: all; white-space: normal; word-wrap: normal; ">End()</div></div></div></foreignObject><text x="130" y="359" fill="#000000" font-family="Lato" font-size="12px" text-anchor="middle">End()</text></switch></g><ellipse cx="130" cy="410" rx="60" ry="20" fill="#ffffff" stroke="#000000" pointer-events="all"/><g transform="translate(-0.5 -0.5)"><switch><foreignObject style="overflow: visible; text-align: left;" pointer-events="none" width="100%" height="100%" requiredFeatures="http://www.w3.org/TR/SVG11/feature#Extensibility"><div xmlns="http://www.w3.org/1999/xhtml" style="display: flex; align-items: unsafe center; justify-content: unsafe center; width: 118px; height: 1px; padding-top: 410px; margin-left: 71px;"><div style="box-sizing: border-box; font-size: 0; text-align: center; "><div style="display: inline-block; font-size: 12px; font-family: Lato; color: #000000; line-height: 1.2; pointer-events: all; white-space: normal; word-wrap: normal; ">Move to next command</div></div></div></foreignObject><text x="130" y="414" fill="#000000" font-family="Lato" font-size="12px" text-anchor="middle">Move to next command</text></switch></g><rect x="4" y="127" width="60" height="20" fill="none" stroke="none" pointer-events="all"/><g transform="translate(-0.5 -0.5)"><switch><foreignObject style="overflow: visible; text-align: left;" pointer-events="none" width="100%" height="100%" requiredFeatures="http://www.w3.org/TR/SVG11/feature#Extensibility"><div xmlns="http://www.w3.org/1999/xhtml" style="display: flex; align-items: unsafe center; justify-content: unsafe flex-start; width: 58px; height: 1px; padding-top: 137px; margin-left: 6px;"><div style="box-sizing: border-box; font-size: 0; text-align: left; "><div style="display: inline-block; font-size: 12px; font-family: Lato; color: #000000; line-height: 1.2; pointer-events: all; white-space: normal; word-wrap: normal; ">For each command</div></div></div></foreignObject><text x="6" y="141" fill="#000000" font-family="Lato" font-size="12px">For each c...</text></switch></g></g><switch><g requiredFeatures="http://www.w3.org/TR/SVG11/feature#Extensibility"/><a transform="translate(0,-5)" xlink:href="https://desk.draw.io/support/solutions/articles/16000042487" target="_blank"><text text-anchor="middle" font-size="10px" x="50%" y="100%">Viewer does not support full SVG 1.1</text></a></switch></svg>
